symbols/web/phone_callback/materialsymbolsoutlined/phone_callback_wght300gradN25_40px.svg

<svg xmlns="http://www.w3.org/2000/svg" height="40" width="40"><path d="M21.458 18.583V9.625h2v5.542l9.459-9.459 1.416 1.417-9.416 9.458h5.5v2Zm10.709 15.292q-4.625 0-9.292-2.333-4.667-2.334-8.396-6.063-3.729-3.729-6.083-8.396-2.354-4.666-2.354-9.291 0-.75.52-1.271Q7.083 6 7.833 6h4.834q.666 0 1.125.396.458.396.583 1.104l1 4.542q.083.541-.042 1.062t-.5.813L11 17.708q2.25 3.792 5.083 6.584 2.834 2.791 6.542 4.875l3.792-3.875q.375-.417.854-.584.479-.166 1.021-.041l4.166.875q.667.166 1.084.666.416.5.416 1.167v4.708q0 .75-.52 1.271-.521.521-1.271.521ZM10 15.875l3.292-3.167q.041-.083.062-.187.021-.104.021-.188L12.5 8.25q0-.125-.083-.188Q12.333 8 12.208 8H8.25q-.083 0-.146.062-.062.063-.062.188 0 1.625.5 3.542.5 1.916 1.458 4.083Zm21.75 16q.083 0 .146-.063.062-.062.062-.145V27.75q0-.125-.062-.208-.063-.084-.188-.125l-3.666-.75q-.084-.042-.146 0-.063.041-.146.125l-3.25 3.333q1.667.792 3.625 1.25 1.958.458 3.625.5Zm-7.25-1.75ZM10 15.875Z"/></svg>

<svg xmlns="http://www.w3.org/2000/svg" height="40" width="40"><path d="M21.458 18.583V9.625H23.458V15.167L32.917 5.708L34.333 7.125L24.917 16.583H30.417V18.583ZM32.167 33.875Q27.542 33.875 22.875 31.542Q18.208 29.208 14.479 25.479Q10.75 21.75 8.396 17.083Q6.042 12.417 6.042 7.792Q6.042 7.042 6.562 6.521Q7.083 6 7.833 6H12.667Q13.333 6 13.792 6.396Q14.25 6.792 14.375 7.5L15.375 12.042Q15.458 12.583 15.333 13.104Q15.208 13.625 14.833 13.917L11 17.708Q13.25 21.5 16.083 24.292Q18.917 27.083 22.625 29.167L26.417 25.292Q26.792 24.875 27.271 24.708Q27.75 24.542 28.292 24.667L32.458 25.542Q33.125 25.708 33.542 26.208Q33.958 26.708 33.958 27.375V32.083Q33.958 32.833 33.438 33.354Q32.917 33.875 32.167 33.875ZM10 15.875 13.292 12.708Q13.333 12.625 13.354 12.521Q13.375 12.417 13.375 12.333L12.5 8.25Q12.5 8.125 12.417 8.062Q12.333 8 12.208 8H8.25Q8.167 8 8.104 8.062Q8.042 8.125 8.042 8.25Q8.042 9.875 8.542 11.792Q9.042 13.708 10 15.875ZM31.75 31.875Q31.833 31.875 31.896 31.812Q31.958 31.75 31.958 31.667V27.75Q31.958 27.625 31.896 27.542Q31.833 27.458 31.708 27.417L28.042 26.667Q27.958 26.625 27.896 26.667Q27.833 26.708 27.75 26.792L24.5 30.125Q26.167 30.917 28.125 31.375Q30.083 31.833 31.75 31.875ZM24.5 30.125Q24.5 30.125 24.5 30.125Q24.5 30.125 24.5 30.125Q24.5 30.125 24.5 30.125Q24.5 30.125 24.5 30.125Q24.5 30.125 24.5 30.125Q24.5 30.125 24.5 30.125Q24.5 30.125 24.5 30.125Q24.5 30.125 24.5 30.125ZM10 15.875Q10 15.875 10 15.875Q10 15.875 10 15.875Q10 15.875 10 15.875Q10 15.875 10 15.875Q10 15.875 10 15.875Q10 15.875 10 15.875Q10 15.875 10 15.875Q10 15.875 10 15.875Z"/></svg>
